images/skills/2-skills-ux-lg.svg

<svg width="420" height="325" viewBox="0 0 420 325" xmlns="http://www.w3.org/2000/svg"><title>ux</title><desc>Created with Sketch.</desc><g fill="#fff"><path d="M258.767 204.972c-.35 1.748-1.748 2.797-3.496 2.797-1.747 0-3.145-1.05-3.495-2.798-2.797-10.838-9.09-17.13-17.13-17.13-8.392 0-16.782 6.99-16.782 18.878 0 15.383 25.172 37.758 37.408 47.197 12.237-9.44 37.41-31.814 37.41-47.197 0-11.887-8.39-18.88-16.782-18.88-8.04 0-14.334 6.294-17.13 17.132"/><path d="M128 101.837V113h142v-11.163C270 95.894 265.06 91 259.117 91H139.55c-5.943 0-11.55 4.894-11.55 10.837zm48.96-3.496c2.096 0 3.844 1.4 3.844 3.497 0 2.098-1.748 3.846-3.845 3.846-2.1 0-3.847-1.748-3.847-3.846s1.748-3.496 3.846-3.496zm-15.035 0c2.098 0 3.846 1.4 3.846 3.497 0 2.098-1.747 3.846-3.845 3.846-2.097 0-3.496-1.748-3.496-3.846s1.398-3.496 3.495-3.496zm-14.683 0c2.097 0 3.496 1.4 3.496 3.497 0 2.098-1.4 3.846-3.496 3.846-2.098 0-3.846-1.748-3.846-3.846s1.748-3.496 3.846-3.496z"/><path d="M205 309.274c0-1.79.956-3.44 2.506-4.334L332 233.298V92.318L207.506 20.676c-1.55-.893-2.506-2.545-2.506-4.334V0H0v325h205v-15.726zm95.02-102.554c0 23.773-40.903 53.49-42.65 54.888-.7.35-1.4.7-2.1.7-.698 0-1.397-.35-2.097-.7-1.748-1.398-42.652-31.115-42.652-54.888 0-16.432 12.237-26.57 24.124-26.57 6.992 0 15.383 3.845 20.627 13.285 5.245-9.44 13.636-13.285 20.628-13.285 11.887 0 24.123 10.138 24.123 26.57zM259.118 83C269.255 83 278 91.698 278 101.837v59.783c0 2.098-2.077 3.846-4.175 3.846-2.097 0-3.825-1.748-3.825-3.846V121H128v70.337c0 6.293 5.607 11.663 11.55 11.663h52.442c2.097 0 3.496 1.402 3.496 3.5s-1.4 3.5-3.496 3.5H139.55c-9.845 0-17.55-7.695-18.55-17.757V100.96c1-9.74 8.705-17.96 18.55-17.96h119.567zm-65.862 221.367c-.78 0-1.565-.192-2.3-.574l-11.892-6.845-98.55-56.843c-1.548-.892-2.513-2.544-2.513-4.33V89.25c0-1.787.965-3.438 2.512-4.33l109.22-63.003c2.395-1.383 5.453-.56 6.833 1.83 1.38 2.392.55 5.447-1.838 6.828L88 92.14v140.88l95.74 55.088 12.014 6.927c2.39 1.38 3.214 4.437 1.834 6.83-.925 1.605-2.604 2.502-4.333 2.502z"/><path d="M215 0v13.45l124.494 71.642c1.55.893 2.506 2.545 2.506 4.334V236.19c0 1.79-.956 3.44-2.506 4.334L215 312.166V325h205V0H215"/></g></svg>

<?xml version="1.0" encoding="UTF-8" standalone="no"?>
<svg width="420px" height="325px" viewBox="0 0 420 325" version="1.1" xmlns="http://www.w3.org/2000/svg" xmlns:xlink="http://www.w3.org/1999/xlink" xmlns:sketch="http://www.bohemiancoding.com/sketch/ns">
    <!-- Generator: Sketch 3.2.2 (9983) - http://www.bohemiancoding.com/sketch -->
    <title>ux</title>
    <desc>Created with Sketch.</desc>
    <defs></defs>
    <g id="Large" stroke="none" stroke-width="1" fill="none" fill-rule="evenodd" sketch:type="MSPage">
        <g id="Group" sketch:type="MSLayerGroup" fill="#FFFFFF">
            <g id="ux" sketch:type="MSShapeGroup">
                <path d="M258.767,204.972 C258.418,206.72 257.019,207.769 255.271,207.769 C253.523,207.769 252.125,206.72 251.775,204.972 C248.978,194.134 242.685,187.841 234.644,187.841 C226.253,187.841 217.863,194.833 217.863,206.72 C217.863,222.103 243.035,244.478 255.271,253.917 C267.507,244.478 292.679,222.103 292.679,206.72 C292.679,194.833 284.289,187.841 275.898,187.841 C267.857,187.841 261.564,194.134 258.767,204.972" id="Fill-1"></path>
                <path d="M128,101.837 L128,113 L270,113 L270,101.837 C270,95.894 265.06,91 259.117,91 L139.55,91 C133.607,91 128,95.894 128,101.837 L128,101.837 Z M176.959,98.341 C179.056,98.341 180.804,99.739 180.804,101.837 C180.804,103.935 179.056,105.683 176.959,105.683 C174.861,105.683 173.113,103.935 173.113,101.837 C173.113,99.739 174.861,98.341 176.959,98.341 L176.959,98.341 Z M161.925,98.341 C164.023,98.341 165.771,99.739 165.771,101.837 C165.771,103.935 164.023,105.683 161.925,105.683 C159.828,105.683 158.429,103.935 158.429,101.837 C158.429,99.739 159.828,98.341 161.925,98.341 L161.925,98.341 Z M147.242,98.341 C149.339,98.341 150.738,99.739 150.738,101.837 C150.738,103.935 149.339,105.683 147.242,105.683 C145.144,105.683 143.396,103.935 143.396,101.837 C143.396,99.739 145.144,98.341 147.242,98.341 L147.242,98.341 Z" id="Fill-2"></path>
                <path d="M205,309.274 C205,307.485 205.956,305.833 207.506,304.94 L332,233.298 L332,92.318 L207.506,20.676 C205.956,19.783 205,18.131 205,16.342 L205,0 L0,0 L0,325 L205,325 L205,309.274 L205,309.274 Z M300.021,206.72 C300.021,230.493 259.117,260.21 257.369,261.608 C256.669,261.958 255.97,262.308 255.271,262.308 C254.572,262.308 253.873,261.958 253.173,261.608 C251.425,260.21 210.521,230.493 210.521,206.72 C210.521,190.288 222.757,180.15 234.644,180.15 C241.636,180.15 250.027,183.995 255.271,193.435 C260.515,183.995 268.906,180.15 275.898,180.15 C287.785,180.15 300.021,190.288 300.021,206.72 L300.021,206.72 Z M259.117,83 C269.255,83 278,91.698 278,101.837 L278,161.62 C278,163.718 275.923,165.466 273.825,165.466 C271.728,165.466 270,163.718 270,161.62 L270,121 L128,121 L128,191.337 C128,197.63 133.607,203 139.55,203 L191.992,203 C194.089,203 195.488,204.402 195.488,206.5 C195.488,208.598 194.089,210 191.992,210 L139.55,210 C129.705,210 122,202.305 121,192.243 L121,100.96 C122,91.219 129.705,83 139.55,83 L259.117,83 L259.117,83 Z M193.255,304.367 C192.476,304.367 191.69,304.175 190.956,303.793 L179.063,296.948 L80.512,240.105 C78.965,239.213 78,237.561 78,235.774 L78,89.252 C78,87.465 78.965,85.814 80.512,84.921 L189.733,21.919 C192.127,20.537 195.185,21.36 196.565,23.751 C197.944,26.142 197.115,29.197 194.727,30.578 L88,92.14 L88,233.019 L183.741,288.108 L195.754,295.035 C198.145,296.415 198.968,299.472 197.588,301.864 C196.663,303.47 194.984,304.367 193.255,304.367 L193.255,304.367 Z" id="Fill-3"></path>
                <path d="M215,0 L215,13.45 L339.494,85.092 C341.044,85.985 342,87.637 342,89.426 L342,236.19 C342,237.979 341.044,239.631 339.494,240.524 L215,312.166 L215,325 L420,325 L420,0 L215,0" id="Fill-4"></path>
            </g>
        </g>
    </g>
</svg>
